src/ui/assets/img/transactions/t-self-trans-48.svg

<svg width="48" height="48" viewBox="0 0 48 48" fill="none" xmlns="http://www.w3.org/2000/svg">
    <circle cx="24" cy="24" r="24" fill="#EF4829" fill-opacity="0.1"/>
    <path fill-rule="evenodd" clip-rule="evenodd" d="M33.375 20.25C33.03 20.25 32.75 19.97 32.75 19.625C32.75 19.28 33.03 19 33.375 19H36.6787C34.4112 14.8225 30.4575 10.25 24 10.25C16.4187 10.25 10.25 16.4187 10.25 24C10.25 31.5812 16.4187 37.75 24 37.75C31.5812 37.75 37.75 31.5812 37.75 24C37.75 23.655 38.03 23.375 38.375 23.375C38.72 23.375 39 23.655 39 24C39 32.2712 32.2712 39 24 39C15.7288 39 9 32.2712 9 24C9 15.7288 15.7288 9 24 9C29.685 9 34.4188 12.2375 37.75 18.365V14.6775C37.75 14.3325 38.03 14.0525 38.375 14.0525C38.72 14.0525 39 14.3325 39 14.6775V19.625C39 19.97 38.72 20.25 38.375 20.25H33.375ZM17.75 24C17.75 27.4463 20.5538 30.25 24 30.25C27.4463 30.25 30.25 27.4463 30.25 24C30.25 20.5538 27.4463 17.75 24 17.75C20.5538 17.75 17.75 20.5538 17.75 24ZM29 24C29 26.7575 26.7575 29 24 29C21.2425 29 19 26.7575 19 24C19 21.2425 21.2425 19 24 19C26.7575 19 29 21.2425 29 24Z" fill="#EF4829"/>
    <path d="M36.6787 19V19.05H36.7628L36.7227 18.9761L36.6787 19ZM37.75 18.365L37.7061 18.3889L37.8 18.365H37.75ZM32.7 19.625C32.7 19.9976 33.0024 20.3 33.375 20.3V20.2C33.0576 20.2 32.8 19.9424 32.8 19.625H32.7ZM33.375 18.95C33.0024 18.95 32.7 19.2524 32.7 19.625H32.8C32.8 19.3076 33.0576 19.05 33.375 19.05V18.95ZM36.6787 18.95H33.375V19.05H36.6787V18.95ZM24 10.3C30.4297 10.3 34.3703 14.8519 36.6348 19.0239L36.7227 18.9761C34.4522 14.7931 30.4853 10.2 24 10.2V10.3ZM10.3 24C10.3 16.4464 16.4464 10.3 24 10.3V10.2C16.3911 10.2 10.2 16.3911 10.2 24H10.3ZM24 37.7C16.4464 37.7 10.3 31.5536 10.3 24H10.2C10.2 31.6089 16.3911 37.8 24 37.8V37.7ZM37.7 24C37.7 31.5536 31.5536 37.7 24 37.7V37.8C31.6089 37.8 37.8 31.6089 37.8 24H37.7ZM38.375 23.325C38.0024 23.325 37.7 23.6274 37.7 24H37.8C37.8 23.6826 38.0576 23.425 38.375 23.425V23.325ZM39.05 24C39.05 23.6274 38.7476 23.325 38.375 23.325V23.425C38.6924 23.425 38.95 23.6826 38.95 24H39.05ZM24 39.05C32.2989 39.05 39.05 32.2989 39.05 24H38.95C38.95 32.2436 32.2436 38.95 24 38.95V39.05ZM8.95 24C8.95 32.2989 15.7011 39.05 24 39.05V38.95C15.7564 38.95 9.05 32.2436 9.05 24H8.95ZM24 8.95C15.7011 8.95 8.95 15.7011 8.95 24H9.05C9.05 15.7564 15.7564 9.05 24 9.05V8.95ZM37.7939 18.3411C34.4563 12.202 29.7079 8.95 24 8.95V9.05C29.6621 9.05 34.3812 12.273 37.7061 18.3889L37.7939 18.3411ZM37.7 14.6775V18.365H37.8V14.6775H37.7ZM38.375 14.0025C38.0024 14.0025 37.7 14.3049 37.7 14.6775H37.8C37.8 14.3601 38.0576 14.1025 38.375 14.1025V14.0025ZM39.05 14.6775C39.05 14.3049 38.7476 14.0025 38.375 14.0025V14.1025C38.6924 14.1025 38.95 14.3601 38.95 14.6775H39.05ZM39.05 19.625V14.6775H38.95V19.625H39.05ZM38.375 20.3C38.7476 20.3 39.05 19.9976 39.05 19.625H38.95C38.95 19.9424 38.6924 20.2 38.375 20.2V20.3ZM33.375 20.3H38.375V20.2H33.375V20.3ZM24 30.2C20.5814 30.2 17.8 27.4186 17.8 24H17.7C17.7 27.4739 20.5261 30.3 24 30.3V30.2ZM30.2 24C30.2 27.4186 27.4186 30.2 24 30.2V30.3C27.4739 30.3 30.3 27.4739 30.3 24H30.2ZM24 17.8C27.4186 17.8 30.2 20.5814 30.2 24H30.3C30.3 20.5261 27.4739 17.7 24 17.7V17.8ZM17.8 24C17.8 20.5814 20.5814 17.8 24 17.8V17.7C20.5261 17.7 17.7 20.5261 17.7 24H17.8ZM24 29.05C26.7851 29.05 29.05 26.7851 29.05 24H28.95C28.95 26.7299 26.7299 28.95 24 28.95V29.05ZM18.95 24C18.95 26.7851 21.2149 29.05 24 29.05V28.95C21.2701 28.95 19.05 26.7299 19.05 24H18.95ZM24 18.95C21.2149 18.95 18.95 21.2149 18.95 24H19.05C19.05 21.2701 21.2701 19.05 24 19.05V18.95ZM29.05 24C29.05 21.2149 26.7851 18.95 24 18.95V19.05C26.7299 19.05 28.95 21.2701 28.95 24H29.05Z" fill="#EF4829"/>
</svg>

<svg fill="none" height="48" width="48" xmlns="http://www.w3.org/2000/svg"><g fill="#ef4829"><circle cx="24" cy="24" fill-opacity=".1" r="24"/><path clip-rule="evenodd" d="M33.375 20.25a.625.625 0 0 1 0-1.25h3.304C34.41 14.822 30.457 10.25 24 10.25c-7.581 0-13.75 6.169-13.75 13.75S16.419 37.75 24 37.75 37.75 31.581 37.75 24A.625.625 0 0 1 39 24c0 8.271-6.729 15-15 15S9 32.271 9 24 15.729 9 24 9c5.685 0 10.419 3.237 13.75 9.365v-3.687a.625.625 0 0 1 1.25 0v4.947c0 .345-.28.625-.625.625zM17.75 24A6.257 6.257 0 0 0 24 30.25 6.257 6.257 0 0 0 30.25 24 6.257 6.257 0 0 0 24 17.75 6.257 6.257 0 0 0 17.75 24zM29 24c0 2.757-2.243 5-5 5s-5-2.243-5-5 2.243-5 5-5 5 2.243 5 5z" fill-rule="evenodd"/><path d="M36.679 19v.05h.084l-.04-.074zm1.071-.635-.044.024.094-.024zm-5.05 1.26c0 .373.302.675.675.675v-.1a.575.575 0 0 1-.575-.575zm.675-.675a.675.675 0 0 0-.675.675h.1c0-.317.258-.575.575-.575zm3.304 0h-3.304v.1h3.304zM24 10.3c6.43 0 10.37 4.552 12.635 8.724l.088-.048C34.453 14.793 30.485 10.2 24 10.2zM10.3 24c0-7.554 6.146-13.7 13.7-13.7v-.1c-7.609 0-13.8 6.191-13.8 13.8zM24 37.7c-7.554 0-13.7-6.146-13.7-13.7h-.1c0 7.609 6.191 13.8 13.8 13.8zM37.7 24c0 7.554-6.146 13.7-13.7 13.7v.1c7.609 0 13.8-6.191 13.8-13.8zm.675-.675A.675.675 0 0 0 37.7 24h.1c0-.317.258-.575.575-.575zm.675.675a.675.675 0 0 0-.675-.675v.1c.317 0 .575.258.575.575zM24 39.05c8.299 0 15.05-6.751 15.05-15.05h-.1c0 8.244-6.706 14.95-14.95 14.95zM8.95 24c0 8.299 6.751 15.05 15.05 15.05v-.1c-8.244 0-14.95-6.706-14.95-14.95zM24 8.95C15.701 8.95 8.95 15.701 8.95 24h.1c0-8.244 6.706-14.95 14.95-14.95zm13.794 9.391C34.456 12.202 29.708 8.95 24 8.95v.1c5.662 0 10.381 3.223 13.706 9.339zm-.094-3.663v3.687h.1v-3.687zm.675-.675a.675.675 0 0 0-.675.675h.1c0-.318.258-.575.575-.575zm.675.675a.675.675 0 0 0-.675-.675v.1c.317 0 .575.257.575.575zm0 4.947v-4.947h-.1v4.947zm-.675.675a.675.675 0 0 0 .675-.675h-.1a.575.575 0 0 1-.575.575zm-5 0h5v-.1h-5zM24 30.2a6.207 6.207 0 0 1-6.2-6.2h-.1c0 3.474 2.826 6.3 6.3 6.3zm6.2-6.2c0 3.419-2.781 6.2-6.2 6.2v.1c3.474 0 6.3-2.826 6.3-6.3zM24 17.8c3.419 0 6.2 2.781 6.2 6.2h.1c0-3.474-2.826-6.3-6.3-6.3zM17.8 24c0-3.419 2.781-6.2 6.2-6.2v-.1a6.307 6.307 0 0 0-6.3 6.3zm6.2 5.05A5.055 5.055 0 0 0 29.05 24h-.1c0 2.73-2.22 4.95-4.95 4.95zM18.95 24A5.055 5.055 0 0 0 24 29.05v-.1c-2.73 0-4.95-2.22-4.95-4.95zM24 18.95A5.055 5.055 0 0 0 18.95 24h.1c0-2.73 2.22-4.95 4.95-4.95zM29.05 24A5.055 5.055 0 0 0 24 18.95v.1c2.73 0 4.95 2.22 4.95 4.95z"/></g></svg>
